X: 9723
T: Deer In The Woods
R: jig
M: 6/8
K: Gmajor
|:B>cB BAG|A>BA AGE|DGG DAA|BAB AGA|
B>cB BAG|A>BA AGE|DGG DAA|DBA G3:|
|:g>ag gde|gGB deg|a>ba age|age c'ba|
g>ag gdB|c>Bc ABc|d>ed d>ed|1 cBA GBd:|2 cBA G2A||

